X:1
T:James Gibb editions
T:Veni sancte Spiritus - Ravanello
T:#
%%score { 1 | 2 } 3
L:1/8
Q:1/4=72
M:4/4
K:G
V:1 treble nm="Soprano I" snm="S"
V:2 treble 
V:3 treble nm="Alto" snm="A"
V:1
"^Veni sancte Spiritus, op.66/15""^Oreste Ravanello\n (1871-1938)""^andante"!p! E2 F2 | %1
w: Ve- ni|
w: Ve- ni|
 G2 A2 G2 F2 |"^," E4 G2 A2 | B2 c2 B2 A2 |"^," B4 B2 (ed) | c2 e2 e2 ^d2 |"^," !fermata!e4 :: %7
w: san- cte Spi- ri-|tus, et e-|mit- te coe- li-|tus lu- cis *|tu- ae ra- di-|um.|
w: pa- ter pau- pe-|rum, ve- ni|da- tor mu- ne-|rum, ve- ni *|lu- men cor- di-|um.|
[M:4/4] B2 e2 | d2 B2 ^c2 c2 |"^," d4 d2 (^cB) | A2 B2 B2 A2 |"^," B4 B2 (^c^d) | e2 (GA) F3 F | %13
w: Con- so-|la- tor o- pti-|me, dul- cis *|ho- spes sa- ni-|mae, dul- ce *|re- fri\- * ge- ri-|
w: In la-|bo- re re- qui-|es, in ae\- *|stu- tem pe- ri-|es, in fle\- *|tu so\- * la- ti-|
 !fermata!E4 :: E2 B2 | A3 G c2 c2 |"^," B4 B2 ^c2 | d2 e2 ^c3 c ||[M:3/4]"^," d4 d-d | %19
w: um.|O lux|be- a- tis- si-|ma, re- ple|cor- dis in- ti-|ma tu\- *|
w: um.|Si- ne|tu- o nu- mi-|ne, ni- hil|est in ho- mi-|ne, ni- hil|
 (d2 B2) G2 | A4 (Bc) ||[M:4/4] !fermata!B4 ::!f! B2 e2 | d2 B2 ^c2 c2 | d4 d2 (^cB) | %25
w: o- rum fi-|de- li\- *|um.|La- va|quod est sor- di-|dum, ri- ga *|
w: est * in-|no- xi\- *|um.|Fle- cte|quod est ri- gi-|dum fo- ve *|
 A2 B2 B2 A2 | B4 B2 (^c^d) | e2 (GA) F3 F | !fermata!E4 ::!p! E2 !^!F2 | G2 A2 G2 F2 | E4 G2 A2 | %32
w: quod est a- ri-|dum, sa- na *|quod est * sau- ci-|um.|Da tu-|is fi- de- li-|bus, in te|
w: quod est fri- gi-|dum, re- ge *|quod est * de- vi-|um.|~Da vir-|tu- tis me- ri-|tum, da sa-|
 B2 c2 B2 A2 | B4 B2 (ed) | c2 e2 e2 ^d2 | !fermata!e4 :| z4 | z4!ff! (e2 d2 | c2 B2) A4 | %39
w: con- fi- den- ti-|bus, sa- crum *|se- pte- na- ri-|um.||A\- *|* * men,|
w: lu- tis e- xi-|tum, da pe\- *|ren- ne gau- di-|um.||||
 (d2 c2 B2 e2- | e2 ^d2 e4) |"^," ^d4 d2 d2 | (e4 c4) | !fermata!B8 |] %44
w: A\- * * *||men. Al- le-|lu\- *|ia.|
w: |||||
V:2
!p! E2 E2 | E2 E2 E2 ^D2 |"^," E4 E2 F2 | G2 G2 G2 F2 |"^," G4 G2 B2 | c2 B2 A2 A2 | %6
w: Ve- ni|san- cte Spi- ri-|tus, et e-|mit- te coe- li-|tus lu- cis|tu- ae ra- di-|
w: Ve- ni|pa- ter pau- pe-|rum, ve- ni|da- tor mu- ne-|rum, ve- ni|lu- men cor- di-|
"^," !fermata!G4 ::[M:4/4] G2 G2 | A2 B2 B2 ^A2 |"^," B4 B2 (=AG) | F2 F2 E2 E2 |"^," ^D4 D2 (EF) | %12
w: um.|Con- so-|la- tor o- pti-|me, dul- cis *|ho- spes sa- ni-|mae, dul- ce *|
w: um.|In la-|bo- re re- qui-|es, in ae\- *|stu- tem pe- ri-|es, in fle\- *|
 E2 E2 E2 ^D2 | E4 :: E2 B2 | A3 G E2 E2 |"^," G4 G2 G2 | A2 B2 A3 A ||[M:3/4]"^," A4 A-A | %19
w: re- fri- ge- ri-|um.|O lux|be- a- tis- si-|ma, re- ple|cor- dis in- ti-|ma tu\- *|
w: tu so- la- ti-|um.|Si- ne|tu- o nu- mi-|ne, ni- hil|est in ho- mi-|ne, ni- hil|
 (B2 G2) G2 | (G2 FE) F2 ||[M:4/4] !fermata!G4 ::!f! G2 G2 | A2 B2 B2 ^A2 | B4 B2 (=AG) | %25
w: o- rum fi-|de\- * * li-|um.|La- va|quod est sor- di-|dum, ri- ga *|
w: est * in-|no\- * * xi-|um.|Fle- cte|quod est ri- gi-|dum fo- ve *|
 F2 F2 E2 E2 | ^D4 D2 (EF) | E2 E2 E2 ^D2 | !fermata!E4 ::!p! E2 !^!E2 | E2 E2 E2 ^D2 | E4 E2 F2 | %32
w: quod est a- ri-|dum, sa- na *|quod est sau- ci-|um.|Da tu-|is fi- de- li-|bus, in te|
w: quod est fri- gi-|dum, re- ge *|quod est de- vi-|um.|~Da vir-|tu- tis me- ri-|tum, da sa-|
 G2 G2 G2 F2 | G4 G2 B2 | c2 B2 A2 A2 | !fermata!G4 :|!ff! (B2 A2 | G2 F2 E2 B2 | A2 G2 F4) | %39
w: con- fi- den- ti-|bus, sa- crum|se- pte- na- ri-|um.|A\- *||* * men,|
w: lu- tis e- xi-|tum, da pe-|ren- ne gau- di-|um.||||
 (G4 B4 | A6 G2) |"^," F4 F2 F2 | (G4 A4) | ^G8 |] %44
w: A\- *||men. Al- le-|lu\- *|ia.|
w: |||||
V:3
!p! E2 E2 | E2 C2 B,2 B,2 |"^," E4 E2 D2 | G2 E2 D2 D2 |"^," G4 G2 G2 | A2 G2 F3 F | %6
w: Ve- ni|san- cte Spi- ri-|tus, et e-|mit- te coe- li-|tus lu- cis|tu- ae ra- di-|
w: Ve- ni|pa- ter pau- pe-|rum, ve- ni|da- tor mu- ne-|rum, ve- ni|lu- men cor- di-|
"^," !fermata!E4 ::[M:4/4] E2 E2 | F2 G2 F2 F2 |"^," B,4 B,2 ^C2 | D2 D2 =C2 C2 |"^," B,4 B,2 A,2 | %12
w: um.|Con- so-|la- tor o- pti-|me, dul- cis|ho- spes sa- ni-|mae, dul- ce|
w: um.|In la-|bo- re re- qui-|es, in ae-|stu- tem pe- ri-|es, in fle-|
 G,2 C2 A,2 B,2 | E4 :: E2 B2 | A3 G C2 A,2 |"^," E4 E2 E2 | F2 G2 A3 G ||[M:3/4]"^," F4 F-F | %19
w: re- fri- ge- ri-|um.|O lux|be- a- tis- si-|ma, re- ple|cor- dis in- ti-|ma tu\- *|
w: tu so- la- ti-|um.|Si- ne|tu- o nu- mi-|ne, ni- hil|est in ho- mi-|ne, ni- hil|
 (G2 G2) G2 | D4 D2 ||[M:4/4] !fermata!G4 ::!f! G2 E2 | F2 G2 F2 F2 | B,4 B,2 ^C2 | D2 D2 =C2 C2 | %26
w: o- rum fi-|de- li-|um.|La- va|quod est sor- di-|dum, ri- ga|quod est a- ri-|
w: est * in-|no- x-|um.|Fle- cte|quod est ri- gi-|dum fo- ve|quod est fri- gi-|
 B,4 B,2 A,2 | G,2 C2 A,2 B,2 | !fermata!E4 ::!p! E2 !^!E2 | E2 C2 B,2 B,2 | E4 E2 D2 | %32
w: dum, sa- na|quod est sau- ci-|um.|Da tu-|is fi- de- li-|bus, in te|
w: dum, re- ge|quod est de- vi-|um.|~Da vir-|tu- tis me- ri-|tum, da sa-|
 G2 E2 D2 D2 | G4 G2 G2 | A2 G2 F2 F2 | !fermata!E4 :| z4 | z8 | z4!ff! (D2 C2 | %39
w: con- fi- den- ti-|bus, sa- crum|se- pte- na- ri-|um.|||A\- *|
w: lu- tis e- xi-|tum, da pe-|ren- ne gau- di-|um.||||
 B,2 A,2)"^," G,2 (G2 | F4 E4) |"^," B,4 B,2 B,2 | (E4 A4) | !fermata!E8 |] %44
w: * * men, A\-||men. Al- le-|lu\- *|ia.|
w: |||||

